X:1
T:The world is waiting for the sunrise
C:1919 - Raymond Roberts / Gene Lockhart
Z:Copyright © www.realbook.site
L:1/4
M:2/2
I:linebreak $
K:Bb
V:1 treble nm=" " snm=" "
V:1
 F |:"Bb" D3 F |"F7#5" G3 F |"Bb" D F G B |"D7" d2 c2 |$"Eb" B3 G |"Bb" F3"G7" D |1"C7" D C2 D | %8
"Cm7" C3"F7#5" ^C :|2$"Cmb5" E3"F7" F ||"Bb" B4- | B z z2 |] %12

